icons/scan-vertical-32.svg

<?xml version="1.0" encoding="UTF-8"?><svg id="icons" xmlns="http://www.w3.org/2000/svg" viewBox="0 0 32 32"><path d="m28.96997,27.5c0,.82843-.64154,1.46997-1.46997,1.46997s-1.47998-.64154-1.47998-1.46997c0-.14313.00647-.27887.04388-.40997l-9.5639-5.92596-11.5,7.95508v-7.63232l11.5-7.50293,10.5,7.1568v-4.7583l-10.5-7.08453-11.5,7.85889v-7.47656l11.5-7.52783,10.06018,5.95789,3.20831.30219-2.12213,1.13452-.05829,2.45038-1.61395-2.93689-9.47412-5.70496-10.5,6.86182v5.03613l10.5-7.17725,11.5,7.79156v7.2251l-11.5-7.89508-10.5,6.82812v5.17334l10.5-7.25684,10.14075,6.43073c.24365-.17102.539-.27313.85925-.27313.82843,0,1.46997.57159,1.46997,1.40002Z" style="stroke-width:0px;"/><rect width="32" height="32" style="fill:none; stroke-width:0px;"/></svg>

<svg xmlns="http://www.w3.org/2000/svg" viewBox="0 0 32 32"><path d="M28.97 27.5c0 .828-.642 1.47-1.47 1.47s-1.48-.642-1.48-1.47c0-.143.006-.279.044-.41L16.5 21.164 5 29.12v-7.632l11.5-7.503L27 21.14v-4.759L16.5 9.298 5 17.157V9.68l11.5-7.528L26.56 8.11l3.208.302-2.122 1.135-.058 2.45-1.614-2.937L16.5 3.355 6 10.217v5.036l10.5-7.177L28 15.868v7.225l-11.5-7.895L6 22.026v5.173l10.5-7.257 10.14 6.431a1.49 1.49 0 0 1 .86-.273c.828 0 1.47.572 1.47 1.4z" stroke-width="0"/><path fill="none" stroke-width="0" d="M0 0h32v32H0z"/></svg>
